X:159
T:Tenpenny Bit, The
C:Joe Buchanan's Scottish Tome - Page 261.3
I:261 3
Z:Carl Allison
R:Jig
L:1/8
M:6/8
K:G
g/f/ | "Am"eAA eAA | "G"BAB GBd | "Am"eAA eAA | "G"def gag |
"Am"eAA eAA | "G"BAB GBd | "Em"ede gdB | BAG "Am"A2 :|
d | "Am"eaa aga | "Em"bab ged | "Am"eaa aga | "Em"bab g2 d |
"Am"eaa aga | "Em"bab "G"ged | "Em"def gdB | BAG "Am"A2 :|
%
W:Errata: Added "G" chord at second measure line two and changed lead-in notes to 1/16th notes.

